X:652
T:Catherine Nowlan
C:O'Carolan
B:O'Neill's 652
Z: 1997 by John Chambers <jc@trillian.mit.edu>
N:"Slow"
N:Bar 5 seems to have a 16th-note D, giving a wrong rhythm.
N:I transcribed it like bar 14, which is otherwise identical.
M:3/4
L:1/8
K:D
(AB/c/) \
|d2Fz dc|B2Az AB/c/|d4 c2|B4 dc|
|BcBA GAGF EFED|Dz D2 DF/A/|B2 ez cz|d4||
(d>e) \
|fz az fe|dz .d.c.B.A|d4 cz|B4 dc|
|BcBA GAGF EFED|Dz D2 DF/A/|B2 ez cz|d4|]
